SVG_Azure_All/Cognitive Services Bot Web App.svg

<?xml version="1.0" encoding="UTF-8" standalone="no"?>
<!-- Generated by Microsoft Visio, SVG Export Cognitive Services Bot Web App.svg Page-1 -->

<svg
   xmlns:dc="http://purl.org/dc/elements/1.1/"
   xmlns:cc="http://creativecommons.org/ns#"
   xmlns:rdf="http://www.w3.org/1999/02/22-rdf-syntax-ns#"
   xmlns:svg="http://www.w3.org/2000/svg"
   xmlns="http://www.w3.org/2000/svg"
   xmlns:sodipodi="http://sodipodi.sourceforge.net/DTD/sodipodi-0.dtd"
   xmlns:inkscape="http://www.inkscape.org/namespaces/inkscape"
   width="0.66930324in"
   height="0.78741741in"
   viewBox="0 0 48.190011 56.694294"
   xml:space="preserve"
   class="st9"
   version="1.1"
   id="svg97"
   sodipodi:docname="Cognitive Services Bot Web App.svg"
   style="font-size:12px;overflow:visible;color-interpolation-filters:sRGB;fill:none;fill-rule:evenodd;stroke-linecap:square;stroke-miterlimit:3"
   inkscape:version="0.92.5 (2060ec1f9f, 2020-04-08)"><metadata
   id="metadata101"><rdf:RDF><cc:Work
       rdf:about=""><dc:format>image/svg+xml</dc:format><dc:type
         rdf:resource="http://purl.org/dc/dcmitype/StillImage" /></cc:Work></rdf:RDF></metadata><sodipodi:namedview
   pagecolor="#ffffff"
   bordercolor="#666666"
   borderopacity="1"
   objecttolerance="10"
   gridtolerance="10"
   guidetolerance="10"
   inkscape:pageopacity="0"
   inkscape:pageshadow="2"
   inkscape:window-width="640"
   inkscape:window-height="480"
   id="namedview99"
   showgrid="false"
   inkscape:zoom="1.5724175"
   inkscape:cx="32.125854"
   inkscape:cy="29.684488"
   inkscape:window-x="0"
   inkscape:window-y="0"
   inkscape:window-maximized="0"
   inkscape:current-layer="svg97" />
	<style
   type="text/css"
   id="style2">
	<![CDATA[
		.st1 {fill:#0078d4;stroke:none;stroke-linecap:butt;stroke-width:21.8571}
		.st2 {fill:url(#grad0-8);stroke:none;stroke-linecap:butt;stroke-width:21.8571}
		.st3 {fill:url(#grad0-12);stroke:none;stroke-linecap:butt;stroke-width:21.8571}
		.st4 {fill:url(#grad0-16);stroke:none;stroke-linecap:butt;stroke-width:21.8571}
		.st5 {fill:#ffffff;stroke:none;stroke-linecap:butt;stroke-width:21.8571}
		.st6 {fill:#9cebff;stroke:none;stroke-linecap:butt;stroke-width:21.8571}
		.st7 {fill:#32bedd;stroke:none;stroke-linecap:butt;stroke-width:21.8571}
		.st8 {fill:#50e6ff;stroke:none;stroke-linecap:butt;stroke-width:21.8571}
		.st9 {fill:none;fill-rule:evenodd;font-size:12px;overflow:visible;stroke-linecap:square;stroke-miterlimit:3}
	]]>
	</style>

	<defs
   id="Patterns_And_Gradients">
		<linearGradient
   id="grad0-8"
   x1="0"
   y1="100.64095"
   x2="0.04472136"
   y2="100.64095"
   gradientTransform="scale(0.89442719,1.118034)"
   gradientUnits="userSpaceOnUse">
			<stop
   offset="0"
   stop-color="#faa21d"
   stop-opacity="1"
   id="stop4" />
			<stop
   offset="0.28"
   stop-color="#f99e1b"
   stop-opacity="1"
   id="stop6" />
			<stop
   offset="0.575"
   stop-color="#f69113"
   stop-opacity="1"
   id="stop8" />
			<stop
   offset="0.87"
   stop-color="#f27d07"
   stop-opacity="1"
   id="stop10" />
			<stop
   offset="1"
   stop-color="#ef7100"
   stop-opacity="1"
   id="stop12" />
		</linearGradient>
		<linearGradient
   id="grad0-12"
   x1="0"
   y1="100.64095"
   x2="0.04472136"
   y2="100.64095"
   gradientTransform="scale(0.89442719,1.118034)"
   gradientUnits="userSpaceOnUse">
			<stop
   offset="0"
   stop-color="#faa21d"
   stop-opacity="1"
   id="stop15" />
			<stop
   offset="0.28"
   stop-color="#f99e1b"
   stop-opacity="1"
   id="stop17" />
			<stop
   offset="0.575"
   stop-color="#f69113"
   stop-opacity="1"
   id="stop19" />
			<stop
   offset="0.87"
   stop-color="#f27d07"
   stop-opacity="1"
   id="stop21" />
			<stop
   offset="1"
   stop-color="#ef7100"
   stop-opacity="1"
   id="stop23" />
		</linearGradient>
		<linearGradient
   id="grad0-16"
   x1="0"
   y1="57.805484"
   x2="26.747054"
   y2="57.805484"
   gradientTransform="scale(0.75111076,1.3313616)"
   gradientUnits="userSpaceOnUse">
			<stop
   offset="0"
   stop-color="#50e6ff"
   stop-opacity="1"
   id="stop26" />
			<stop
   offset="0.185"
   stop-color="#84edff"
   stop-opacity="1"
   id="stop28" />
			<stop
   offset="0.37"
   stop-color="#b0f4ff"
   stop-opacity="1"
   id="stop30" />
			<stop
   offset="0.55"
   stop-color="#d2f9ff"
   stop-opacity="1"
   id="stop32" />
			<stop
   offset="0.72"
   stop-color="#ebfcff"
   stop-opacity="1"
   id="stop34" />
			<stop
   offset="0.875"
   stop-color="#fafeff"
   stop-opacity="1"
   id="stop36" />
			<stop
   offset="1"
   stop-color="#ffffff"
   stop-opacity="1"
   id="stop38" />
		</linearGradient>
	</defs>
	<g
   id="g95"
   transform="translate(-21.857176,-21.852162)">
		<title
   id="title42">Page-1</title>
		<g
   id="group6587-1"
   transform="translate(21.8572,-34.0157)">
			<title
   id="title44">Cognitive Services Bot Web App</title>
			<g
   id="group6588-2">
				<title
   id="title46">Sheet.6588</title>
				<g
   id="shape6589-3">
					<title
   id="title48">Sheet.6589</title>
					<path
   d="M 47.08,69.24 25.2,56.18 a 2.22013,2.26362 -180 0 0 -2.25,0 L 1.11,69.24 A 2.25283,2.29696 -180 0 0 0,71.23 v 26 c 0,0.81 0.42,1.58 1.11,1.97 l 21.86,13.05 a 2.22013,2.26362 -180 0 0 2.25,0 L 47.08,99.2 c 0.69,-0.41 1.11,-1.16 1.11,-1.97 v -26 c 0,-0.83 -0.42,-1.58 -1.11,-1.99 z"
   class="st1"
   id="path50"
   inkscape:connector-curvature="0"
   style="fill:#0078d4;stroke:none;stroke-width:21.85709953;stroke-linecap:butt" />
				</g>
				<g
   id="shape6590-5"
   transform="translate(24.0842,-28.2289)">
					<title
   id="title53">Sheet.6590</title>
					<path
   d="M 0.02,112.57 0,112.54 l 0.02,-0.02 0.02,0.02 z"
   class="st2"
   id="path55"
   inkscape:connector-curvature="0"
   style="fill:url(#grad0-8);stroke:none;stroke-width:21.85709953;stroke-linecap:butt" />
				</g>
				<g
   id="shape6591-9"
   transform="translate(24.0842,-28.2289)">
					<title
   id="title58">Sheet.6591</title>
					<path
   d="M 0.02,112.57 0,112.54 l 0.02,-0.02 0.02,0.02 z"
   class="st3"
   id="path60"
   inkscape:connector-curvature="0"
   style="fill:url(#grad0-12);stroke:none;stroke-width:21.85709953;stroke-linecap:butt" />
				</g>
				<g
   id="shape6592-13"
   transform="translate(4.0169,-4.53108)">
					<title
   id="title63">Sheet.6592</title>
					<path
   d="m 20.09,88.82 v 23.75 L 0,100.66 v -23.7 z"
   class="st4"
   id="path65"
   inkscape:connector-curvature="0"
   style="fill:url(#grad0-16);stroke:none;stroke-width:21.85709953;stroke-linecap:butt" />
				</g>
				<g
   id="shape6593-17"
   transform="translate(2.11515,-2.29905)">
					<title
   id="title68">Sheet.6593</title>
					<path
   d="M 43.96,73.59 V 99.53 L 21.99,112.57 0,99.53 V 73.61 L 21.97,60.58 Z"
   class="st5"
   id="path70"
   inkscape:connector-curvature="0"
   style="fill:#ffffff;stroke:none;stroke-width:21.85709953;stroke-linecap:butt" />
				</g>
				<g
   id="shape6594-19"
   transform="translate(27.6364,-14.6665)">
					<title
   id="title73">Sheet.6594</title>
					<path
   d="m 14.27,104.5 c 1.05,-1.43 1.27,-3.08 0.47,-3.69 -0.79,-0.61 -2.29,0.06 -3.35,1.49 -1.05,1.43 -1.27,3.09 -0.47,3.69 0.79,0.61 2.29,-0.06 3.35,-1.49 z m -10.13,5.97 c 1.06,-1.44 1.27,-3.09 0.48,-3.7 -0.79,-0.61 -2.29,0.06 -3.35,1.49 -1.06,1.44 -1.27,3.09 -0.48,3.7 0.8,0.61 2.3,-0.06 3.35,-1.49 z"
   class="st1"
   id="path75"
   inkscape:connector-curvature="0"
   style="fill:#0078d4;stroke:none;stroke-width:21.85709953;stroke-linecap:butt" />
				</g>
				<g
   id="shape6595-21"
   transform="translate(2.11515,-28.2938)">
					<title
   id="title78">Sheet.6595</title>
					<path
   d="M 43.96,99.59 21.99,112.57 0,99.61 21.97,86.57 Z"
   class="st6"
   id="path80"
   inkscape:connector-curvature="0"
   style="fill:#9cebff;stroke:none;stroke-width:21.85709953;stroke-linecap:butt" />
				</g>
				<g
   id="shape6596-23"
   transform="translate(2.05319,-2.17271)">
					<title
   id="title83">Sheet.6596</title>
					<path
   d="m 0,73.45 v 26.03 l 22.07,13.09 V 86.49 Z"
   class="st7"
   id="path85"
   inkscape:connector-curvature="0"
   style="fill:#32bedd;stroke:none;stroke-width:21.85709953;stroke-linecap:butt" />
				</g>
				<g
   id="shape6597-25"
   transform="translate(2.05319,-2.17271)">
					<title
   id="title88">Sheet.6597</title>
					<path
   d="M 0,99.48 22.07,86.49 v 26.08 z"
   class="st8"
   id="path90"
   inkscape:connector-curvature="0"
   style="fill:#50e6ff;stroke:none;stroke-width:21.85709953;stroke-linecap:butt" />
				</g>
			</g>
		</g>
	</g>
</svg>

<?xml version="1.0" encoding="UTF-8" standalone="no"?>
<!DOCTYPE svg PUBLIC "-//W3C//DTD SVG 1.1//EN" "http://www.w3.org/Graphics/SVG/1.1/DTD/svg11.dtd">
<!-- Generated by Microsoft Visio, SVG Export Cognitive Services Bot Web App.svg Page-1 -->
<svg xmlns="http://www.w3.org/2000/svg" xmlns:xlink="http://www.w3.org/1999/xlink" xmlns:ev="http://www.w3.org/2001/xml-events"
		width="1.27643in" height="1.56341in" viewBox="0 0 91.9033 112.566" xml:space="preserve" color-interpolation-filters="sRGB"
		class="st9">
	<style type="text/css">
	<![CDATA[
		.st1 {fill:#0078d4;stroke:none;stroke-linecap:butt;stroke-width:21.8571}
		.st2 {fill:url(#grad0-8);stroke:none;stroke-linecap:butt;stroke-width:21.8571}
		.st3 {fill:url(#grad0-12);stroke:none;stroke-linecap:butt;stroke-width:21.8571}
		.st4 {fill:url(#grad0-16);stroke:none;stroke-linecap:butt;stroke-width:21.8571}
		.st5 {fill:#ffffff;stroke:none;stroke-linecap:butt;stroke-width:21.8571}
		.st6 {fill:#9cebff;stroke:none;stroke-linecap:butt;stroke-width:21.8571}
		.st7 {fill:#32bedd;stroke:none;stroke-linecap:butt;stroke-width:21.8571}
		.st8 {fill:#50e6ff;stroke:none;stroke-linecap:butt;stroke-width:21.8571}
		.st9 {fill:none;fill-rule:evenodd;font-size:12px;overflow:visible;stroke-linecap:square;stroke-miterlimit:3}
	]]>
	</style>

	<defs id="Patterns_And_Gradients">
		<linearGradient id="grad0-8" x1="0" y1="0" x2="1" y2="0" gradientTransform="rotate(-180 0.5 0.5)">
			<stop offset="0" stop-color="#faa21d" stop-opacity="1"/>
			<stop offset="0.28" stop-color="#f99e1b" stop-opacity="1"/>
			<stop offset="0.575" stop-color="#f69113" stop-opacity="1"/>
			<stop offset="0.87" stop-color="#f27d07" stop-opacity="1"/>
			<stop offset="1" stop-color="#ef7100" stop-opacity="1"/>
		</linearGradient>
		<linearGradient id="grad0-12" x1="0" y1="0" x2="1" y2="0" gradientTransform="rotate(0 0.5 0.5)">
			<stop offset="0" stop-color="#faa21d" stop-opacity="1"/>
			<stop offset="0.28" stop-color="#f99e1b" stop-opacity="1"/>
			<stop offset="0.575" stop-color="#f69113" stop-opacity="1"/>
			<stop offset="0.87" stop-color="#f27d07" stop-opacity="1"/>
			<stop offset="1" stop-color="#ef7100" stop-opacity="1"/>
		</linearGradient>
		<linearGradient id="grad0-16" x1="0" y1="0" x2="1" y2="0" gradientTransform="rotate(-90 0.5 0.5)">
			<stop offset="0" stop-color="#50e6ff" stop-opacity="1"/>
			<stop offset="0.185" stop-color="#84edff" stop-opacity="1"/>
			<stop offset="0.37" stop-color="#b0f4ff" stop-opacity="1"/>
			<stop offset="0.55" stop-color="#d2f9ff" stop-opacity="1"/>
			<stop offset="0.72" stop-color="#ebfcff" stop-opacity="1"/>
			<stop offset="0.875" stop-color="#fafeff" stop-opacity="1"/>
			<stop offset="1" stop-color="#ffffff" stop-opacity="1"/>
		</linearGradient>
	</defs>
	<g>
		<title>Page-1</title>
		<g id="group6419-1" transform="translate(21.8572,-34.0157)">
			<title>Cognitive Services Bot Web App</title>
			<g id="group6420-2">
				<title>Sheet.6420</title>
				<g id="shape6421-3">
					<title>Sheet.6421</title>
					<path d="M47.08 69.24 L25.2 56.18 A2.22013 2.26362 -180 0 0 22.95 56.18 L1.11 69.24 A2.25283 2.29696 -180 0 0
								 -0 71.23 L0 97.23 C0 98.04 0.42 98.81 1.11 99.2 L22.97 112.25 A2.22013 2.26362 -180 0 0 25.22 112.25
								 L47.08 99.2 C47.77 98.79 48.19 98.04 48.19 97.23 L48.19 71.23 C48.19 70.4 47.77 69.65 47.08 69.24
								 L47.08 69.24 Z" class="st1"/>
				</g>
				<g id="shape6422-5" transform="translate(24.0842,-28.2289)">
					<title>Sheet.6422</title>
					<path d="M0.02 112.57 L0 112.54 L0.02 112.52 L0.04 112.54 L0.02 112.57 Z" class="st2"/>
				</g>
				<g id="shape6423-9" transform="translate(24.0842,-28.2289)">
					<title>Sheet.6423</title>
					<path d="M0.02 112.57 L0 112.54 L0.02 112.52 L0.04 112.54 L0.02 112.57 Z" class="st3"/>
				</g>
				<g id="shape6424-13" transform="translate(4.0169,-4.53108)">
					<title>Sheet.6424</title>
					<path d="M20.09 88.82 L20.09 112.57 L0 100.66 L0 76.96 L20.09 88.82 Z" class="st4"/>
				</g>
				<g id="shape6425-17" transform="translate(2.11515,-2.29905)">
					<title>Sheet.6425</title>
					<path d="M43.96 73.59 L43.96 99.53 L21.99 112.57 L0 99.53 L0 73.61 L21.97 60.58 L43.96 73.59 Z" class="st5"/>
				</g>
				<g id="shape6426-19" transform="translate(27.6364,-14.6665)">
					<title>Sheet.6426</title>
					<path d="M14.27 104.5 C15.32 103.07 15.54 101.42 14.74 100.81 C13.95 100.2 12.45 100.87 11.39 102.3 C10.34 103.73
								 10.12 105.39 10.92 105.99 C11.71 106.6 13.21 105.93 14.27 104.5 ZM4.14 110.47 C5.2 109.03 5.41 107.38
								 4.62 106.77 C3.83 106.16 2.33 106.83 1.27 108.26 C0.21 109.7 0 111.35 0.79 111.96 C1.59 112.57 3.09
								 111.9 4.14 110.47 Z" class="st1"/>
				</g>
				<g id="shape6427-21" transform="translate(2.11515,-28.2938)">
					<title>Sheet.6427</title>
					<path d="M43.96 99.59 L21.99 112.57 L0 99.61 L21.97 86.57 L43.96 99.59 Z" class="st6"/>
				</g>
				<g id="shape6428-23" transform="translate(2.05319,-2.17271)">
					<title>Sheet.6428</title>
					<path d="M0 73.45 L0 99.48 L22.07 112.57 L22.07 86.49 L0 73.45 Z" class="st7"/>
				</g>
				<g id="shape6429-25" transform="translate(2.05319,-2.17271)">
					<title>Sheet.6429</title>
					<path d="M0 99.48 L22.07 86.49 L22.07 112.57 L0 99.48 Z" class="st8"/>
				</g>
			</g>
		</g>
	</g>
</svg>
